projects/oblique/icons/Tablet.svg

<svg xmlns="http://www.w3.org/2000/svg" viewBox="0 0 24 24"><title>Tablet</title><path d="M3.24973,1.25008v21.5h17.5v-21.5Zm16,20h-14.5V18.74227h14.5Zm0-4.00781h-14.5V6.76864h14.5Zm0-11.97363h-14.5V2.75008h14.5Z" fill="#171717"/><rect x="11.24973" y="19.24618" width="1.5" height="1.5" fill="#171717"/><rect x="9.47824" y="3.25887" width="5.04395" height="1.5" fill="#171717"/></svg>

<?xml version="1.0" encoding="UTF-8"?><svg id="a" xmlns="http://www.w3.org/2000/svg" viewBox="0 0 24 24"><path d="M3.24973,1.27361v21.5h17.5V1.27361H3.24973ZM19.24973,21.27361H4.74973v-2.50781h14.5v2.50781ZM19.24973,17.2658H4.74973V6.79217h14.5v10.47363ZM19.24973,5.29217H4.74973v-2.51855h14.5v2.51855ZM12.74973,20.7697h-1.5v-1.5h1.5v1.5ZM14.52219,4.7824h-5.04395v-1.5h5.04395v1.5Z"/></svg>
